app/images/dist/Logo.svg

<svg width="125" height="24" viewBox="0 0 125 24" fill="none" xmlns="http://www.w3.org/2000/svg">
<path fill-rule="evenodd" clip-rule="evenodd" d="M20.0977 21.1566C20.0977 22.3424 21.0354 23.3096 22.2543 23.3096C23.442 23.3096 24.4108 22.3424 24.4108 21.1566V14.7656C22.5153 11.3212 21.0492 7.55993 20.0977 3.53247V21.1566Z" fill="#F7DB45"/>
<path fill-rule="evenodd" clip-rule="evenodd" d="M15.1914 0C14.41 0 13.5974 0.436889 13.3161 1.49781C11.9408 6.11612 10.4406 11.2336 8.7217 16.1951C7.06515 11.2336 5.56493 6.20977 4.22106 1.59147C3.93965 0.499325 3.0959 0 2.25199 0C0.970493 0 -0.373379 1.09214 0.0954788 2.7771C1.75187 8.61242 3.72094 14.6973 5.90872 21.0318C6.47138 22.748 7.37783 23.3097 8.59663 23.3097C9.69052 23.3097 10.6906 22.7168 11.2845 21.063C13.5349 14.6349 15.5352 8.48755 17.2541 2.58995C17.6604 1.0297 16.4102 0 15.1914 0Z" fill="#F7DB45"/>
<path fill-rule="evenodd" clip-rule="evenodd" d="M120.687 14.9272C120.687 17.6108 119.843 19.4832 116.843 19.4832C113.843 19.4832 113.03 17.6108 113.03 14.9272V10.9061C111.566 10.4758 110.126 9.97038 108.717 9.39465V14.9272C108.717 19.2022 110.748 23.3837 116.843 23.3837C122.938 23.3837 125 19.2022 125 14.9272V12.6984C123.553 12.6823 122.114 12.5968 120.687 12.4401V14.9272Z" fill="white"/>
<path fill-rule="evenodd" clip-rule="evenodd" d="M85.8065 18.9839H77.9304V13.6791H84.6813C85.7752 13.6791 86.6817 12.8053 86.6817 11.7132C86.6817 10.621 85.7752 9.71603 84.6813 9.71603H77.9304V4.41125H85.3689C86.5253 4.41125 87.4316 3.50625 87.4316 2.38306C87.4316 1.2597 86.5253 0.323486 85.3689 0.323486H75.6488C74.5236 0.323486 73.6172 1.2597 73.6172 2.38306V21.0121C73.6172 22.1668 74.5236 23.0716 75.6488 23.0716H85.8065C86.9317 23.0716 87.8381 22.1668 87.8381 21.0121C87.8381 19.8889 86.9317 18.9839 85.8065 18.9839Z" fill="white"/>
<path fill-rule="evenodd" clip-rule="evenodd" d="M97.9639 16.2379C96.3073 11.2765 94.8071 6.25233 93.4633 1.63419C93.182 0.541884 92.3381 0.0427246 91.4942 0.0427246C90.2127 0.0427246 88.8688 1.13487 89.3377 2.81999C90.9942 8.65514 92.9631 14.7402 95.1509 21.0745C95.7136 22.7909 96.6199 23.3526 97.8388 23.3526C98.9327 23.3526 99.933 22.7596 100.527 21.1057C102.145 16.4832 103.632 12.0081 104.98 7.66421C103.741 7.02063 102.534 6.31888 101.36 5.56258C100.317 9.04027 99.197 12.6788 97.9639 16.2379Z" fill="white"/>
<path fill-rule="evenodd" clip-rule="evenodd" d="M41.4452 18.9409H33.5691V13.6363H40.32C41.4137 13.6363 42.3202 12.7625 42.3202 11.6704C42.3202 10.5783 41.4137 9.67326 40.32 9.67326H33.5691V4.36865H41.0076C42.164 4.36865 43.0703 3.46365 43.0703 2.34029C43.0703 1.21693 42.164 0.280884 41.0076 0.280884H31.2875C30.1623 0.280884 29.2559 1.21693 29.2559 2.34029V20.9693C29.2559 22.1239 30.1623 23.0287 31.2875 23.0287H41.4452C42.5703 23.0287 43.4766 22.1239 43.4766 20.9693C43.4766 19.8459 42.5703 18.9409 41.4452 18.9409Z" fill="#F7DB45"/>
<path fill-rule="evenodd" clip-rule="evenodd" d="M69.5756 0C68.7006 0 67.7942 0.530544 67.5754 1.68512C66.5439 6.70894 65.45 11.452 64.1687 16.2886C62.981 11.7017 61.8558 6.98973 60.9496 2.52752C60.6369 1.09214 60.0118 0 58.4178 0C56.9176 0 56.1677 1.12336 55.855 2.55873C54.9486 6.98973 53.8234 11.7017 52.6046 16.2886C51.3544 11.452 50.2605 6.70894 49.229 1.68512C48.979 0.530544 48.1038 0 47.2288 0C46.1662 0 45.0723 0.748906 45.0723 1.99714C45.0723 2.15306 45.0723 2.34037 45.1346 2.55873C46.5412 9.04931 47.9476 14.7598 49.6354 20.8757C50.1041 22.4672 51.0731 23.3097 52.4482 23.3097C53.6672 23.3097 54.7924 22.4984 55.23 20.9381C56.3239 16.944 57.4177 12.7002 58.3866 8.48755C59.3868 12.7002 60.4494 16.944 61.5744 20.9381C62.0122 22.4984 63.1373 23.3097 64.3561 23.3097C65.7002 23.3097 66.7003 22.4672 67.1379 20.8757C68.8568 14.7598 70.2632 9.04931 71.6698 2.55873C71.701 2.34037 71.7323 2.15306 71.7323 1.99714C71.7323 0.748906 70.6384 0 69.5756 0Z" fill="#F7DB45"/>
<path fill-rule="evenodd" clip-rule="evenodd" d="M22.2543 0C21.0354 0 20.0977 0.998487 20.0977 2.15306V3.53257C21.0492 7.56004 22.5153 11.3213 24.4108 14.7657V2.15306C24.4108 0.998487 23.442 0 22.2543 0Z" fill="#F7DB45"/>
<path fill-rule="evenodd" clip-rule="evenodd" d="M116.843 0.0427246C110.748 0.0427246 108.717 4.19293 108.717 8.468V9.39468C110.126 9.97041 111.566 10.4758 113.03 10.9061V8.468C113.03 5.81561 113.843 3.9744 116.843 3.9744C119.875 3.9744 120.687 5.84683 120.687 8.468V12.4401C122.114 12.5968 123.553 12.6823 125 12.6984V8.468C125 4.19293 122.938 0.0427246 116.843 0.0427246Z" fill="white"/>
<path fill-rule="evenodd" clip-rule="evenodd" d="M104.435 0.0427246C103.654 0.0427246 102.841 0.479616 102.56 1.54054C102.171 2.84595 101.772 4.1921 101.361 5.56258C102.535 6.31888 103.743 7.02063 104.981 7.66421C105.508 5.96776 106.015 4.28921 106.498 2.63267C106.904 1.07243 105.654 0.0427246 104.435 0.0427246Z" fill="white"/>
</svg>

<svg width="125" height="24" fill="none" xmlns="http://www.w3.org/2000/svg"><path fill-rule="evenodd" clip-rule="evenodd" d="M20.098 21.157a2.14 2.14 0 0 0 2.156 2.153 2.159 2.159 0 0 0 2.157-2.153v-6.391a44.463 44.463 0 0 1-4.313-11.234v17.625ZM15.191 0c-.781 0-1.594.437-1.875 1.498-1.375 4.618-2.875 9.736-4.594 14.697-1.657-4.961-3.157-9.985-4.5-14.604C3.94.5 3.095 0 2.251 0 .97 0-.373 1.092.095 2.777c1.657 5.835 3.626 11.92 5.814 18.255.562 1.716 1.469 2.278 2.688 2.278 1.094 0 2.094-.593 2.688-2.247 2.25-6.428 4.25-12.575 5.97-18.473C17.66 1.03 16.41 0 15.19 0Z" fill="#F7DB45"/><path fill-rule="evenodd" clip-rule="evenodd" d="M120.687 14.927c0 2.684-.844 4.556-3.844 4.556s-3.813-1.872-3.813-4.556v-4.02a44.82 44.82 0 0 1-4.313-1.512v5.532c0 4.275 2.031 8.457 8.126 8.457 6.095 0 8.157-4.182 8.157-8.457v-2.229a43.99 43.99 0 0 1-4.313-.258v2.487Zm-34.881 4.057H77.93v-5.305h6.751c1.094 0 2-.874 2-1.966a2.013 2.013 0 0 0-2-1.997h-6.75V4.411h7.438c1.156 0 2.063-.905 2.063-2.028a2.06 2.06 0 0 0-2.063-2.06h-9.72c-1.125 0-2.032.937-2.032 2.06v18.63c0 1.154.907 2.059 2.032 2.059h10.157c1.126 0 2.032-.905 2.032-2.06a2.026 2.026 0 0 0-2.031-2.028Zm12.158-2.746c-1.657-4.961-3.157-9.986-4.5-14.604C93.181.542 92.337.043 91.493.043c-1.281 0-2.625 1.092-2.156 2.777 1.656 5.835 3.625 11.92 5.813 18.255.563 1.716 1.469 2.278 2.688 2.278 1.094 0 2.094-.593 2.688-2.247a396.105 396.105 0 0 0 4.453-13.442 44.91 44.91 0 0 1-3.62-2.101c-1.043 3.477-2.163 7.116-3.396 10.675Z" fill="#fff"/><path fill-rule="evenodd" clip-rule="evenodd" d="M41.445 18.94H33.57v-5.304h6.751c1.094 0 2-.873 2-1.966a2.013 2.013 0 0 0-2-1.997h-6.75V4.37h7.438c1.156 0 2.062-.905 2.062-2.029a2.06 2.06 0 0 0-2.062-2.06h-9.72c-1.126 0-2.032.937-2.032 2.06v18.63c0 1.154.906 2.059 2.032 2.059h10.157c1.125 0 2.032-.905 2.032-2.06a2.026 2.026 0 0 0-2.032-2.028ZM69.576 0c-.875 0-1.782.53-2 1.685a262.309 262.309 0 0 1-3.407 14.604c-1.188-4.587-2.313-9.3-3.22-13.761C60.638 1.092 60.013 0 58.419 0c-1.5 0-2.25 1.123-2.563 2.559-.906 4.43-2.032 9.143-3.25 13.73A293.42 293.42 0 0 1 49.23 1.685C48.979.531 48.104 0 47.229 0c-1.063 0-2.157.749-2.157 1.997 0 .156 0 .343.063.562a327.181 327.181 0 0 0 4.5 18.317c.47 1.591 1.438 2.434 2.813 2.434 1.22 0 2.344-.812 2.782-2.372a314.468 314.468 0 0 0 3.157-12.45c1 4.212 2.062 8.456 3.187 12.45.438 1.56 1.563 2.372 2.782 2.372 1.344 0 2.344-.843 2.782-2.434 1.719-6.116 3.125-11.827 4.532-18.317.031-.219.062-.406.062-.562C71.732.75 70.638 0 69.576 0ZM22.254 0a2.159 2.159 0 0 0-2.156 2.153v1.38a44.463 44.463 0 0 0 4.313 11.233V2.153C24.41.998 23.442 0 22.254 0Z" fill="#F7DB45"/><path fill-rule="evenodd" clip-rule="evenodd" d="M116.843.043c-6.095 0-8.126 4.15-8.126 8.425v.927a44.82 44.82 0 0 0 4.313 1.511V8.468c0-2.652.813-4.494 3.813-4.494 3.032 0 3.844 1.873 3.844 4.494v3.972a43.99 43.99 0 0 0 4.313.258v-4.23c0-4.275-2.062-8.425-8.157-8.425Zm-12.408 0c-.781 0-1.594.437-1.875 1.498-.389 1.305-.788 2.651-1.199 4.022a45.084 45.084 0 0 0 3.62 2.101 300.773 300.773 0 0 0 1.517-5.031c.406-1.56-.844-2.59-2.063-2.59Z" fill="#fff"/></svg>
